X: 92
T:Tom Billy's Jig
R:Jig
O:Ireland
M:6/8
L:1/8
K:AMix
a3 ece | edB BAA | eaa Ace | dcB Ace |
a3 ece | edB BAB | GBd gfg | edB Ace :|
|:~g3~a3 | bag fed | faf gdB | BAB def |
~g3 ~a3  | bge egb |age dBe |[1 A2(3c/B/A/ Ace :|[2 A2(3c/B/A/ aed |
|:~c3 dcd | ecA cBA |ABA cBA | ABA aed | ~c3 dcd |
ede gab | age dBe |[1 A2(3c/B/A/ aed :|[2 A2(3c/B/A/ A2:|
